Yaru++/apps/scalable/scribus.svg

<svg enable-background="new" height="256" viewBox="0 0 256 256" width="256" xmlns="http://www.w3.org/2000/svg" xmlns:xlink="http://www.w3.org/1999/xlink">
  <filter id="filter11191" color-interpolation-filters="sRGB" height="1.024" width="1.024" x="-.01" y="-.01">
    <feGaussianBlur stdDeviation="1.12"/>
  </filter>
  <filter id="filter11210" color-interpolation-filters="sRGB" height="1.096" width="1.096" x="-.05" y="-.05">
    <feGaussianBlur stdDeviation="4.48"/>
  </filter>
  <linearGradient id="linearGradient623" gradientTransform="matrix(.238692 0 0 .46487686 2.91155 -12.00163)" gradientUnits="userSpaceOnUse" x1="273.636" x2="411.624" y1="74.198" y2="425.916">
    <stop offset="0" stop-color="#b9e5ff" stop-opacity=".419643"/>
    <stop offset="1" stop-color="#fff"/>
  </linearGradient>
  <circle cx="128.752" cy="127.248" filter="url(#filter11210)" opacity=".1" r="112"/>
  <circle cx="128.752" cy="125.248" filter="url(#filter11191)" opacity=".1" r="112"/>
  <circle cx="128.752" cy="123.248" opacity=".1" r="114"/>
  <circle cx="128.752" cy="123.248" fill="#1a7fd4" r="112"/>
  <path d="m128.752 11.248014a112 112 0 0 0 -111.999998 111.999996 112 112 0 0 0 .04102 1.16992 112 112 0 0 1 111.958978-111.169916 112 112 0 0 1 111.95898 110.830076 112 112 0 0 0 .041-.83008 112 112 0 0 0 -112-111.999996z" fill="#fff" opacity=".3"/>
  <path d="m128.752 235.24801c-61.855891 0-111.999998-50.14411-111.999998-112 .01163-.39004.02531-.78002.04102-1.16992.228166 30.78508 12.860843 58.59441 33.135522 78.69904 20.238667 20.06891 48.092211 32.46047 78.823456 32.47088 61.38589-.0191 111.31776-49.44754 111.95898-110.83008.0147.27664.0284.55334.041.83008 0 61.85589-50.14411 112-112 112z" opacity=".2"/>
  <g fill-rule="evenodd" transform="matrix(.33311017 0 0 .33311017 -316.27279 -123.51008)">
    <ellipse cx="1426.011" cy="-663.639" fill="#060000" rx="95.98" ry="56.154" transform="matrix(.7651989 .64379395 -.73696278 .67593333 0 0)"/>
    <path d="m110.07031 12.833984a112 112 0 0 0 -.35547.042969 112 112 0 0 0 -10.921871 2.453125 112 112 0 0 0 -10.625 3.529297 112 112 0 0 0 -10.21875 4.574219 112 112 0 0 0 -9.710938 5.570312 112 112 0 0 0 -9.107422 6.511719 112 112 0 0 0 -8.410156 7.388672 112 112 0 0 0 -7.630859 8.191406 112 112 0 0 0 -6.775391 8.912109 112 112 0 0 0 -5.851562 9.544922 112 112 0 0 0 -4.869141 10.080078 112 112 0 0 0 -2.695312 7.382813c6.247162 58.252855 85.017792 113.100355 84.619142 111.876955 0 0-28.728905-45.46582-6.43164-91.4043 17.6423-36.763785 23.15813-70.617769 8.98437-94.654296z" fill="url(#linearGradient623)" fill-opacity=".75" transform="matrix(3.0020098 0 0 3.0020098 949.45402 370.77847)"/>
    <path d="m1294.2853 974.62416c-2.2903-2.13985 112.7212-172.66728 253.3096-195.82268.4321-183.81859 84.951-251.43702 90.3009-262.94587-11.2961-61.06669-44.4626-84.13105-74.3976-88.98935-50.7373-6.46623-41.2145 16.29719-47.4484 22.3581-34.3326 77.53156-106.2349 186.98119-116.3837 206.55202-28.5558 39.56956-89.0282 234.86184-113.2161 318.46024z" fill="#eab305"/>
    <path d="m155.73242 98.347656a2.8910582 8.3072113 30.602209 0 0 -5.88281 5.681644 2.8910582 8.3072113 30.602209 0 0 -2.2168 8.33984c-1.69451 3.29075-8.3808 20.25146-15.42773 38.63672 6.93457-17.659 13.69173-33.99481 16.19922-38.08789a2.8910582 8.3072113 30.602209 0 0 6.25781-5.66797 2.8910582 8.3072113 30.602209 0 0 1.86914-8.730469 2.8910582 8.3072113 30.602209 0 0 -.79883-.171875zm-23.52734 52.658204c-7.94769 20.23892-16.12097 42.19859-18.43164 49.66992 2.22782-6.78917 10.54679-29.09855 18.43164-49.66992z" fill="#1c1c1c" transform="matrix(3.0020098 0 0 3.0020098 949.45402 370.77847)"/>
    <path d="m1444.8432 784.83412c30.497-23.97635 43.9382-43.48925 74.1331-49.43597-5.2164-74.96907 52.4044-165.49775 99.2434-250.14813l-8.4347-15.22022c-19.3754 29.34504-134.5208 240.19543-164.9418 314.80432z" fill="#fee581"/>
    <path d="m1543.0121 397.0524a96.388104 55.450687 36.353491 0 0 -36.1942 10.63603 96.388104 55.450687 36.353491 0 0 -10.6008 29.57448 96.388104 55.450687 36.353491 0 1 10.6008-23.57046 96.388104 55.450687 36.353491 0 1 36.1942-10.63603 96.388104 55.450687 36.353491 0 1 78.6327 34.47034 96.388104 55.450687 36.353491 0 1 42.7259 70.11921 96.388104 55.450687 36.353491 0 0 -42.7259-76.12323 96.388104 55.450687 36.353491 0 0 -78.6327-34.47034zm-37.9415 75.40791c-36.73 74.60374-96.2319 165.62772-105.4045 183.31607-28.5558 39.56958-89.0266 234.86095-113.2145 318.45929l1.7473.088c25.1214-86.26095 83.497-273.78509 111.4672-312.54323 9.2973-17.92893 70.348-111.23464 106.9349-186.38258a96.388104 55.450687 36.353491 0 1 -1.5304-2.93751z" fill="#fff" opacity=".3"/>
    <path d="m1496.2089 431.27781a96.388104 55.450687 36.353491 0 0 8.8595 35.17981c.4997-1.01497 1.0392-2.05786 1.5303-3.06651a96.388104 55.450687 36.353491 0 1 -10.3898-32.1133zm168.1595 70.35375a96.388104 55.450687 36.353491 0 1 -10.6654 23.64083 96.388104 55.450687 36.353491 0 1 -36.6808 10.58911c-26.6611 34.93264-69.121 106.64913-69.4273 236.93596-140.5884 23.1554-255.6025 193.68262-253.3122 195.82251l-6.0861-.29903c-.5259 1.80601-1.2512 4.2017-1.7472 5.91609l7.8333.38696c-2.2903-2.13989 112.7238-172.66711 253.3122-195.82251.3063-130.28684 42.7662-202.00332 69.4273-236.93597a96.388104 55.450687 36.353491 0 0 36.6808-10.5891 96.388104 55.450687 36.353491 0 0 10.6654-29.64485z" fill="#060000" opacity=".2" stroke="#080808" stroke-width=".699446pt"/>
  </g>
</svg>

<svg xmlns="http://www.w3.org/2000/svg" xmlns:xlink="http://www.w3.org/1999/xlink" style="enable-background:new" width="256" height="256" version="1.0" viewBox="0 0 256 256">
 <title id="title4162">
  Adwaita Icon Template
 </title>
 <defs>
  <linearGradient id="linearGradient950">
   <stop style="stop-color:#9a9996" id="stop946" offset="0"/>
   <stop style="stop-color:#77767b" id="stop948" offset="1"/>
  </linearGradient>
  <linearGradient id="linearGradient1001" x1="1660.857" x2="1662.99" y1="806.297" y2="812.882" gradientTransform="matrix(1.8293937,-0.81599442,0.81599442,1.8293937,-3645.9624,100.02949)" gradientUnits="userSpaceOnUse" xlink:href="#linearGradient950"/>
  <clipPath id="clipPath5154" clipPathUnits="userSpaceOnUse">
   <circle style="fill:url(#radialGradient5158)" cx="128" cy="924.362" r="109.647"/>
  </clipPath>
  <clipPath id="clipPath977" clipPathUnits="userSpaceOnUse">
   <circle style="fill:url(#radialGradient5158)" cx="128" cy="924.362" r="109.647"/>
  </clipPath>
  <clipPath id="clipPath4688" clipPathUnits="userSpaceOnUse">
   <path style="fill:url(#radialGradient4692);stroke:#a7003f;stroke-linecap:round;stroke-linejoin:round" d="m 106.42383,889.60156 c -2.2448,-0.0524 -4.09304,1.75264 -4.09375,3.99805 v 32.64453 32.64453 c -4e-5,3.07923 3.33305,5.004 6,3.46485 l 28.26953,-16.32227 28.27148,-16.32227 c 2.66559,-1.54001 2.66559,-5.38772 0,-6.92773 l -28.27148,-16.32227 -28.26953,-16.32226 c -0.58054,-0.3353 -1.23603,-0.51932 -1.90625,-0.53516 z"/>
  </clipPath>
  <clipPath id="clipPath4564" clipPathUnits="userSpaceOnUse">
   <circle style="fill:url(#radialGradient4568)" cx="128" cy="924.362" r="109.647"/>
  </clipPath>
  <clipPath id="clipPath6215" clipPathUnits="userSpaceOnUse">
   <path style="fill:url(#radialGradient6219)" d="m 105.17325,806.18572 c -3.06859,0.56361 -6.11393,1.24721 -9.129005,2.04923 -3.838255,1.06506 -7.62084,2.32142 -11.333578,3.76438 -3.712189,1.44307 -7.34989,3.07087 -10.899472,4.87732 -3.549153,1.80656 -7.005749,3.78947 -10.35684,5.94129 -3.351877,2.15253 -6.593991,4.47137 -9.714191,6.94783 -3.119992,2.47544 -6.114241,5.10535 -8.971529,7.87988 -0.367219,0.38909 -0.731819,0.78065 -1.093777,1.17464 2.60205,17.85956 16.832359,40.03752 30.863064,55.74236 -4.76734,8.84435 -7.265993,18.73329 -7.272057,28.78068 0.02104,2.87431 0.246096,5.7435 0.673482,8.58593 -20.257302,-9.18513 -43.077023,-26.53494 -52.798465,-47.36396 -0.440667,1.15171 -0.863474,2.31018 -1.268271,3.47498 -1.176789,3.80495 -2.162562,7.66637 -2.953625,11.56979 -0.79154,3.90311 -1.3874065,7.84335 -1.7853678,11.80598 -0.39733,3.96334 -0.5961891,7.94407 -0.5958321,11.92728 -4.394e-4,2.81936 0.098928,5.63785 0.2979155,8.45018 0.282275,3.97319 0.763088,7.92978 1.4406374,11.85493 0.625626,3.51826 1.408798,7.00668 2.347153,10.45473 16.778133,6.68355 43.114514,5.45001 63.748015,1.14301 6.818545,11.02763 16.987182,19.58379 29.018153,24.41667 -18.071844,12.93645 -44.490188,24.02095 -67.37308,22.03245 1.384097,1.665 2.813203,3.2921 4.285735,4.8794 2.774977,2.8571 5.691103,5.5737 8.737453,8.1395 3.046107,2.5658 6.218619,4.9777 9.505651,7.2266 3.287242,2.2488 6.684891,4.3319 10.180217,6.2413 3.495379,1.9096 7.084075,3.6433 10.752641,5.1944 3.66896,1.5509 7.413193,2.9174 11.218668,4.0942 1.438565,0.3959 2.884421,0.7648 4.336807,1.1066 14.138748,-11.1844 26.206378,-34.5828 32.780368,-54.56406 12.95816,-0.38251 25.45395,-4.90132 35.65955,-12.89544 2.15922,22.12638 -1.46693,50.5581 -14.64692,69.3832 3.06859,-0.5636 6.11393,-1.2473 9.129,-2.0493 3.83826,-1.0651 7.62084,-2.3214 11.33358,-3.7644 3.71219,-1.4431 7.34989,-3.0709 10.89947,-4.8773 3.54915,-1.8066 7.00575,-3.7895 10.35684,-5.9413 3.35188,-2.1525 6.59399,-4.4714 9.71419,-6.9478 3.11999,-2.4754 6.11424,-5.1054 8.97153,-7.8799 0.36722,-0.3891 0.73182,-0.7806 1.09378,-1.1746 -2.60204,-17.85957 -16.83236,-40.03755 -30.86307,-55.74238 4.76735,-8.84435 7.266,-18.7333 7.27207,-28.78069 -0.021,-2.8743 -0.24611,-5.74349 -0.6735,-8.58592 20.25731,9.18513 43.07704,26.53494 52.79848,47.36396 0.44067,-1.15171 0.86347,-2.31018 1.26827,-3.47499 1.17679,-3.80495 2.16256,-7.66636 2.95362,-11.56978 0.79154,-3.90311 1.38741,-7.84335 1.78537,-11.80598 0.39733,-3.96334 0.59619,-7.94408 0.59583,-11.92729 4.4e-4,-2.81936 -0.0989,-5.63784 -0.29791,-8.45017 -0.28228,-3.97319 -0.76309,-7.92978 -1.44064,-11.85493 -0.62776,-3.53416 -1.41449,-7.03823 -2.35779,-10.50154 -20.56165,-7.32804 -45.89823,-4.79548 -63.74906,-1.11372 -6.81835,-11.01918 -16.98234,-19.56874 -29.00647,-24.39915 18.07184,-12.93645 44.49019,-24.02091 67.37307,-22.03241 -1.38409,-1.66502 -2.8132,-3.2921 -4.28573,-4.87944 -2.77498,-2.85712 -5.6911,-5.57368 -8.73745,-8.13949 -3.04611,-2.56581 -6.21862,-4.97769 -9.50565,-7.22659 -3.28724,-2.24885 -6.68489,-4.3319 -10.18022,-6.24135 -3.49538,-1.90963 -7.08407,-3.64325 -10.75264,-5.19438 -3.66896,-1.55092 -7.41319,-2.91736 -11.21867,-4.09421 -1.42662,-0.39262 -2.86041,-0.75869 -4.30063,-1.09804 -14.14688,11.18369 -26.2293,34.57475 -32.8107,54.55552 -12.96018,0.38127 -25.4582,4.90015 -35.665394,12.89544 -2.15922,-22.12637 1.466931,-50.55807 14.646924,-69.38315 z"/>
  </clipPath>
  <linearGradient id="linearGradient982" x1="152" x2="152" y1="124" y2="236" gradientUnits="userSpaceOnUse" xlink:href="#linearGradient980"/>
  <linearGradient id="linearGradient980">
   <stop style="stop-color:#000000" id="stop976" offset="0"/>
   <stop style="stop-color:#000000;stop-opacity:0" id="stop978" offset="1"/>
  </linearGradient>
  <clipPath id="clipPath999" clipPathUnits="userSpaceOnUse">
   <path style="fill:#5d5d5d" d="m 152,68 c -48.60106,0 -88,39.39894 -88,88 0,48.60106 39.39894,88 88,88 48.60106,0 88,-39.39894 88,-88 0,-48.60106 -39.39894,-88 -88,-88 z"/>
  </clipPath>
  <filter style="color-interpolation-filters:sRGB" id="filter1003" width="1.12" height="1.12" x="-.06" y="-.06">
   <feGaussianBlur id="feGaussianBlur1005" stdDeviation="4.4"/>
  </filter>
  <filter style="color-interpolation-filters:sRGB" id="filter11191" width="1.024" height="1.024" x="-.01" y="-.01">
   <feGaussianBlur id="feGaussianBlur11193" stdDeviation="1.12"/>
  </filter>
  <filter style="color-interpolation-filters:sRGB" id="filter11210" width="1.096" height="1.096" x="-.05" y="-.05">
   <feGaussianBlur id="feGaussianBlur11212" stdDeviation="4.48"/>
  </filter>
  <linearGradient id="linearGradient665">
   <stop id="stop666" offset="0" style="stop-color:#ffffff;stop-opacity:0.285714"/>
   <stop id="stop667" offset="1" style="stop-color:#daecf8"/>
  </linearGradient>
  <linearGradient id="linearGradient624">
   <stop id="stop625" offset="0" style="stop-color:#b9e5ff;stop-opacity:0.419643"/>
   <stop id="stop626" offset="1" style="stop-color:#ffffff"/>
  </linearGradient>
  <linearGradient id="linearGradient619">
   <stop id="stop620" offset="0" style="stop-color:#66b8ff"/>
   <stop id="stop621" offset="1" style="stop-color:#00507a"/>
  </linearGradient>
  <linearGradient id="linearGradient604">
   <stop id="stop605" offset="0" style="stop-color:#838383"/>
   <stop id="stop606" offset="1" style="stop-color:#2c2c2c"/>
  </linearGradient>
  <linearGradient id="linearGradient598">
   <stop id="stop599" offset="0" style="stop-color:#e1dedd;stop-opacity:0.866071"/>
   <stop id="stop600" offset="1" style="stop-color:#2c2c2c"/>
  </linearGradient>
  <linearGradient id="linearGradient593">
   <stop id="stop594" offset="0" style="stop-color:#fff9db;stop-opacity:0.732143"/>
   <stop id="stop595" offset="1" style="stop-color:#2c2c2c"/>
  </linearGradient>
  <linearGradient id="linearGradient586">
   <stop id="stop587" offset="0" style="stop-color:#6e6969"/>
   <stop id="stop588" offset="1" style="stop-color:#2c2c2c"/>
  </linearGradient>
  <linearGradient id="linearGradient578">
   <stop id="stop579" offset="0" style="stop-color:#fff2bc"/>
   <stop id="stop580" offset="1" style="stop-color:#83560b"/>
  </linearGradient>
  <linearGradient id="linearGradient581" x1="596.057" x2="656.456" y1="231.006" y2="279.761" gradientTransform="matrix(0.80329146,0,0,1.2448782,958.19452,334.74946)" gradientUnits="userSpaceOnUse" xlink:href="#linearGradient578"/>
  <radialGradient id="radialGradient582" cx=".5" cy=".5" r=".5" fx=".5" fy=".5" xlink:href="#linearGradient578"/>
  <linearGradient id="linearGradient590" x1="779.717" x2="908.448" y1="160.625" y2="264.661" gradientTransform="matrix(0.74212107,0,0,1.347489,958.19452,334.74946)" gradientUnits="userSpaceOnUse" xlink:href="#linearGradient593"/>
  <linearGradient id="linearGradient592" x1=".196" x2=".32" y1=".492" y2=".539" xlink:href="#linearGradient586"/>
  <linearGradient id="linearGradient597" x1=".493" x2=".667" y1=".258" y2=".383" xlink:href="#linearGradient598"/>
  <linearGradient id="linearGradient603" x1=".831" x2=".438" y1=".375" y2=".109" xlink:href="#linearGradient604"/>
  <linearGradient id="linearGradient618" x1=".411" x2=".977" y1=".375" y2=".93" xlink:href="#linearGradient665"/>
  <linearGradient id="linearGradient623" x1="273.636" x2="411.624" y1="74.198" y2="425.916" gradientTransform="matrix(0.238692,0,0,0.46487686,2.9115495,-12.00163)" gradientUnits="userSpaceOnUse" xlink:href="#linearGradient624"/>
  <linearGradient id="linearGradient664" x1="34.351" x2="332.645" y1="-72.169" y2="598.456" gradientTransform="matrix(0.832278,0,0,0.846654,-220.23662,980.4591)" gradientUnits="userSpaceOnUse" xlink:href="#linearGradient619"/>
 </defs>
 <circle style="opacity:0.1;filter:url(#filter11210)" cx="128.752" cy="127.248" r="112"/>
 <circle style="opacity:0.1;filter:url(#filter11191)" cx="128.752" cy="125.248" r="112"/>
 <circle style="opacity:0.1" cx="128.752" cy="123.248" r="114"/>
 <circle style="fill:#1a7fd4" cx="128.752" cy="123.248" r="112"/>
 <path style="opacity:0.3;fill:#ffffff" d="M 128.752,11.248014 A 112,112 0 0 0 16.752002,123.24801 112,112 0 0 0 16.793022,124.41793 112,112 0 0 1 128.752,13.248014 112,112 0 0 1 240.71098,124.07809 a 112,112 0 0 0 0.041,-0.83008 112,112 0 0 0 -112,-111.999996 z"/>
 <path style="opacity:0.2" d="m 128.752,235.24801 c -61.855891,0 -111.999998,-50.14411 -111.999998,-112 0.01163,-0.39004 0.02531,-0.78002 0.04102,-1.16992 0.228166,30.78508 12.860843,58.59441 33.135522,78.69904 20.238667,20.06891 48.092211,32.46047 78.823456,32.47088 61.38589,-0.0191 111.31776,-49.44754 111.95898,-110.83008 0.0147,0.27664 0.0284,0.55334 0.041,0.83008 0,61.85589 -50.14411,112 -112,112 z"/>
 <g transform="matrix(0.33311017,0,0,0.33311017,-316.27279,-123.51008)">
  <ellipse cx="1426.011" cy="-663.639" rx="95.98" ry="56.154" transform="matrix(0.7651989,0.64379395,-0.73696278,0.67593333,0,0)" style="fill:#060000;fill-rule:evenodd"/>
  <path style="fill:url(#linearGradient623);fill-opacity:0.75;fill-rule:evenodd" d="M 110.07031 12.833984 A 112 112 0 0 0 109.71484 12.876953 A 112 112 0 0 0 98.792969 15.330078 A 112 112 0 0 0 88.167969 18.859375 A 112 112 0 0 0 77.949219 23.433594 A 112 112 0 0 0 68.238281 29.003906 A 112 112 0 0 0 59.130859 35.515625 A 112 112 0 0 0 50.720703 42.904297 A 112 112 0 0 0 43.089844 51.095703 A 112 112 0 0 0 36.314453 60.007812 A 112 112 0 0 0 30.462891 69.552734 A 112 112 0 0 0 25.59375 79.632812 A 112 112 0 0 0 22.898438 87.015625 C 29.1456 145.26848 107.91623 200.11598 107.51758 198.89258 C 107.51758 198.89258 78.788675 153.42676 101.08594 107.48828 C 118.72824 70.724495 124.24407 36.870511 110.07031 12.833984 z" transform="matrix(3.0020098,0,0,3.0020098,949.45402,370.77847)"/>
  <path id="hrot" d="m 1294.2853,974.62416 c -2.2903,-2.13985 112.7212,-172.66728 253.3096,-195.82268 0.4321,-183.81859 84.951,-251.43702 90.3009,-262.94587 -11.2961,-61.06669 -44.4626,-84.13105 -74.3976,-88.98935 -50.7373,-6.46623 -41.2145,16.29719 -47.4484,22.3581 -34.3326,77.53156 -106.2349,186.98119 -116.3837,206.55202 -28.5558,39.56956 -89.0282,234.86184 -113.2161,318.46024 z" style="fill:#eab305;fill-rule:evenodd"/>
  <path style="fill:#1c1c1c;fill-rule:evenodd" d="M 155.73242 98.347656 A 2.8910582 8.3072113 30.602209 0 0 149.84961 104.0293 A 2.8910582 8.3072113 30.602209 0 0 147.63281 112.36914 C 145.9383 115.65989 139.25201 132.6206 132.20508 151.00586 C 139.13965 133.34686 145.89681 117.01105 148.4043 112.91797 A 2.8910582 8.3072113 30.602209 0 0 154.66211 107.25 A 2.8910582 8.3072113 30.602209 0 0 156.53125 98.519531 A 2.8910582 8.3072113 30.602209 0 0 155.73242 98.347656 z M 132.20508 151.00586 C 124.25739 171.24478 116.08411 193.20445 113.77344 200.67578 C 116.00126 193.88661 124.32023 171.57723 132.20508 151.00586 z" transform="matrix(3.0020098,0,0,3.0020098,949.45402,370.77847)"/>
  <path d="m 1444.8432,784.83412 c 30.497,-23.97635 43.9382,-43.48925 74.1331,-49.43597 -5.2164,-74.96907 52.4044,-165.49775 99.2434,-250.14813 l -8.4347,-15.22022 c -19.3754,29.34504 -134.5208,240.19543 -164.9418,314.80432 z" style="fill:#fee581;fill-rule:evenodd"/>
  <path style="fill:#ffffff;fill-rule:evenodd;opacity:0.3" id="ellipse1095" d="m 1543.0121,397.0524 a 96.388104,55.450687 36.353491 0 0 -36.1942,10.63603 96.388104,55.450687 36.353491 0 0 -10.6008,29.57448 96.388104,55.450687 36.353491 0 1 10.6008,-23.57046 96.388104,55.450687 36.353491 0 1 36.1942,-10.63603 96.388104,55.450687 36.353491 0 1 78.6327,34.47034 96.388104,55.450687 36.353491 0 1 42.7259,70.11921 96.388104,55.450687 36.353491 0 0 -42.7259,-76.12323 96.388104,55.450687 36.353491 0 0 -78.6327,-34.47034 z m -37.9415,75.40791 c -36.73,74.60374 -96.2319,165.62772 -105.4045,183.31607 -28.5558,39.56958 -89.0266,234.86095 -113.2145,318.45929 l 1.7473,0.088 c 25.1214,-86.26095 83.497,-273.78509 111.4672,-312.54323 9.2973,-17.92893 70.348,-111.23464 106.9349,-186.38258 a 96.388104,55.450687 36.353491 0 1 -1.5304,-2.93751 z"/>
  <path style="fill:#060000;fill-rule:evenodd;stroke:#080808;stroke-width:0.69944644pt;opacity:0.2" d="m 1496.2089,431.27781 a 96.388104,55.450687 36.353491 0 0 8.8595,35.17981 c 0.4997,-1.01497 1.0392,-2.05786 1.5303,-3.06651 a 96.388104,55.450687 36.353491 0 1 -10.3898,-32.1133 z m 168.1595,70.35375 a 96.388104,55.450687 36.353491 0 1 -10.6654,23.64083 96.388104,55.450687 36.353491 0 1 -36.6808,10.58911 c -26.6611,34.93264 -69.121,106.64913 -69.4273,236.93596 -140.5884,23.1554 -255.6025,193.68262 -253.3122,195.82251 l -6.0861,-0.29903 c -0.5259,1.80601 -1.2512,4.2017 -1.7472,5.91609 l 7.8333,0.38696 c -2.2903,-2.13989 112.7238,-172.66711 253.3122,-195.82251 0.3063,-130.28684 42.7662,-202.00332 69.4273,-236.93597 a 96.388104,55.450687 36.353491 0 0 36.6808,-10.5891 96.388104,55.450687 36.353491 0 0 10.6654,-29.64485 z"/>
 </g>
</svg>
